X:11
T:Humours of Westport, The
R:reel
D:A Tribute To Joe Cooley by Frankie Gavin, Paul Brock, Charlie Lennon
D:Brian Kelly by Brian Kelly
M:C|
K:F
~f3e fcAc|~f3e (3fga ge|fage fcAc|BAGA Bcde|
~f3e fcAc|~f2eg fagb|afge fcAc|BAGA BdcB||
A2cF dFcF|AFcA BdcB|A2cF dFcA|BAGA BdcB|
A2cF dFcF|AFcA BdcB|Acfa gecA|BAGA Bcde||
|f2 fe fcAc|f2 fe fage|f2 fe fcAc|BAGA Bcde|
f2 fe fcAc|f2 fe fagb|afge fcAc|BAGA BdcB|
|AFcF dFcF|AFcF BdcB|AFcF dFcF|BAGA BdcB|
AFcF dFcF|AFcF BdcB|Acfa gefc|BAGA Bcde|
|~f3e fcAc|fAcf (3def ge|effe fcAc|BAGA (3BAG ce|
||~f3e fcAc|fAcf (3def ge|agfe fcAc|BAGA (3BAG ce|
|F2 cF dFcF|(3FFF cF BdcA|F2 cF dFcA|BAGA (3BAG cA|
|F2 cF dFcF|(3FFF cF BdcB|Acfa gecA|1 BAGA (3BAG cA:|2 BAGA (3BAG 
(3cde||
|effe fgef|(3fff ef efge|effe fcAc|BAGA (3BAG cA|
|ff (3fff FfAf|(3FFF Af f ^g|agfe fcAc|BAGA (3BAG cA||
effa fcAc|(3eff fg ecge|efAf fcAc|BAGA Bcde|
effg gaag|(3eff fg ecge|efAf fcAc|ABdB BcdB|
AF (3FFF dFcF|AFFc (3cBB Bc|AFFF dFcF|ABDB BcdB|
AF (3FFF dFcF | AFFc (3cBB Bc |Acfa gecA|ABGA Bcde||
effa fcAc|(3eff fg ecge|efAf fcAc|BAGA Bcde|
effg fcAc|(3eff fg eeae|efAf fcAc|ABDB BcdB|
AFGE EF (3FFG|ABcA ABBc|A(3FFF dFcF|ABDB BcdB|
AF (3FFF dFcF |(3dFF cF ABBc |Acfa gecA|ABGA Bcde||
